img/fb.svg

<svg width="50" height="50" viewBox="0 0 50 50" fill="none" xmlns="http://www.w3.org/2000/svg">
<g clip-path="url(#clip0_0_57)">
<path fill-rule="evenodd" clip-rule="evenodd" d="M0.00012207 25.1396C0.00012207 37.5687 9.02721 47.9042 20.8335 50V31.9437H14.5835V25H20.8335V19.4438C20.8335 13.1937 24.8605 9.72292 30.5564 9.72292C32.3605 9.72292 34.3064 10 36.1105 10.2771V16.6667H32.9168C29.8605 16.6667 29.1668 18.1937 29.1668 20.1396V25H35.8335L34.723 31.9437H29.1668V50C40.973 47.9042 50.0001 37.5708 50.0001 25.1396C50.0001 11.3125 38.7501 0 25.0001 0C11.2501 0 0.00012207 11.3125 0.00012207 25.1396Z" fill="white"/>
</g>
<defs>
<clipPath id="clip0_0_57">
<rect width="50" height="50" fill="white" transform="translate(0.00012207)"/>
</clipPath>
</defs>
</svg>

<svg width="50" height="50" fill="none" xmlns="http://www.w3.org/2000/svg"><g clip-path="url(#a)"><path fill-rule="evenodd" clip-rule="evenodd" d="M0 25.14C0 37.569 9.027 47.904 20.834 50V31.944h-6.25V25h6.25v-5.556c0-6.25 4.026-9.721 9.722-9.721 1.805 0 3.75.277 5.555.554v6.39h-3.194c-3.057 0-3.75 1.527-3.75 3.473V25h6.666l-1.11 6.944h-5.556V50C40.973 47.904 50 37.57 50 25.14 50 11.312 38.75 0 25 0S0 11.313 0 25.14Z" fill="#fff"/></g><defs><clipPath id="a"><path fill="#fff" d="M0 0h50v50H0z"/></clipPath></defs></svg>
